X:1
T:It Was on One Monday Morning
M:4/4
L:1/4
K:C
 G/2G/2| G E C A,| D2 ^F G| A3/2 E/2 G =F| D3 G| G E CA,/2-D/2| D2 ^F G|\
 A3/2 E/2 G=F/2-E/2| D3A/2-B/2| c c F G| A d2 D/2D/2| D B c B| A3 D/2E/2|\
 F A G A,| D2 ^F G| A3/2 E/2 G E| D3||
